X: 21
T:Llwydcoed
M:2/2
L:1/8
Q:200
C:Trad
S:Blodau'r Grug Collection Vol. 1
R:Hornpipe
A:Wales
Z:brian_martin12345@yahoo.com
K:G
g3gf2g2|e2d2B2G2|EF G2A2B2|G2F2G4:||
d3dB2d2|e3fg2e2|!d3d Bcd2|ed3A4|G3AB2d2|e3fg2fe|d3cB2 {AB}A2|G2F2G4||
